!!!COM: Bohuslav (Jan) Martinů
!!!OTL: [T496_Mau-28/2/1-11]
**kern	**dynam	**kern	**dynam
*grp:A	*grp:A	*grp:B	*grp:B
*part2	*part2	*part1	*part1
*staff2	*	*staff1	*
*I"Piano	*	*I"Violin	*
*I'Pno.	*	*I'Vln.	*
*clefF4	*	*clefG2	*
*k[]	*	*k[]	*
*C:	*	*C:	*
*M2/4	*	*M2/4	*
=1	=1	=1	=1
*^	*	*	*
!	!	!LO:DY:ed=paren	!LO:TX:t=[[quarter]=102]	!
8ryy	8rByy	4ryy	8r	.
!	!	!	!LO:TX:a:B:t=Allegro	!
!	!	!	!LO:TX:t=P:problem:cross-staff beaming not implemented yet	!
8rFFyy	8ryy	.	16gLL	f
.	.	.	16g	.
8rFFyy	8ryy	.	16g	.
.	.	.	16f#XJJ	.
8ryy	8rByy	.	16gLL	.
.	.	.	16aJ	.
=2	=2	=2	=2	=2
8ryy	8rByy	.	/8b-XJ	<
8rFFyy	8ryy	.	8ccL	.
8rFFyy	8ryy	.	8ddJ	[
8ryy	8rByy	.	16ccLL	.
.	.	.	16ddJ	.
=3	=3	=3	=3	=3
8ryy	8rByy	.	8b-XJ	.
8rFFyy	8ryy	.	8aL	.
8rFFyy	8ryy	.	8dJ	.
8ryy	8rByy	.	16gLL	.
.	.	.	16g	.
=4	=4	=4	=4	=4
8ryy	8rByy	.	16g	.
.	.	.	16f#XJJ	.
8rFFyy	8ryy	.	16gLL	.
.	.	.	16aJ	.
8rFFyy	8ryy	.	/8b-XJ	.
8ryy	8rByy	.	16ccLL	<
.	.	.	\16a	.
=5	=5	=5	=5	=5
8ryy	8rByy	.	16dd	.
.	.	.	16b-XJJ	.
8rFFyy	8ryy	.	/16ccLL	[
.	.	.	16dJ	.
8rFFyy	8ryy	.	/8b-XJ	.
8ryy	8rByy	.	(8cL 8d	.
!!linebreak:original
=6	=6	=6	=6	=6
8ryy	8rByy	.	8aJ)	.
8rFFyy	8ryy	.	16gLL	.
.	.	.	16dJ	.
8rFFyy	8ryy	.	8e-XJ	.
8ryy	8rByy	.	16dLL	.
.	.	.	16G	.
=7	=7	=7	=7	=7
8ryy	8rByy	.	16g	.
.	.	.	16e-XJJ	.
8rFFyy	8ryy	.	/16b-XLL	.
.	.	.	16d	.
8rFFyy	8ryy	.	/16dd	.
.	.	.	16aJJ	.
8ryy	8rByy	.	8aaL	<
=8	=8	=8	=8	=8
8ryy	8rByy	.	16ggL	.
.	.	.	16ggJ	.
8rFFyy	8ryy	.	16ggL	[
.	.	.	16aaJJ	.
8rFFyy	8ryy	.	16ffLL	.
.	.	.	16aaJ	.
8ryy	8rByy	.	16eeL	.
.	.	.	16aaJ	.
=9	=9	=9	=9	=9
8ryy	8rByy	.	8ddJ	.
8rFFyy	8ryy	.	\(8dL	.
8rFFyy	8ryy	.	16b-X'L 16bb-X)	.
.	.	.	16b-J 16bb-	.
8ryy	8rByy	.	8a 8aa	.
=10	=10	=10	=10	=10
8ryy	8rByy	.	\8dJ	.
8rFFyy	8ryy	.	16b-XLL 16bb-X	.
.	.	.	16b-J 16bb-	.
8rFFyy	8ryy	.	8aJ 8aa	.
8ryy	8rByy	.	8r	.
=11	=11	=11	=11	=11
8ryy	8rByy	.	(8dL	.
8rFFyy	8ryy	.	8dd^J 8ddd)	.
8ryy	8rByy	.	16r	.
.	.	.	16ALL	.
8rFFyy	8ryy	.	16B-X	.
.	.	.	16cJJ	.
*v	*v	*	*	*
=||	=||	=||	=||
*-	*-	*-	*-
!!!system-decoration: s1[(s2)]
!!!RDF**kern: > = above
!!!RDF**kern: < = below
!!!EED: Rafael Laurindo
!!!EEV: 2021/08/05
!!!EED2: Daniel Wright
!!!EEV2: 2022/02/11
